X: 32
T: No_39_Singing_for_That_Bean.krn
N: Derived from No_39_Singing_for_That_Bean.krn
%%abc-version 2.0
%%abcx-abcm2ps-target-version 5.9.1 (29 Sep 2008)
%%abc-creator hum2abc beta
%%abcx-conversion-date 2019/03/15 08:27:55
%%humdrum-veritas 3351244638
%%humdrum-veritas-data 2898250457
%%linebreak <none>
%%barnumbers 0
L: 1/8
M: 2/4
%%staves {1 2}
V: 1 clef=bass
V: 2 clef=bass
K: F
[V:1] [K:clef=bass][M:2/4]z2G,3/C/ ]|:  
[V:2] [K:clef=bass][M:2/4]!accent!G,,G,, !accent!G,,G,, ]|:  
[V:1] C2CB, | 
[V:2] !accent!G,,G,, !accent!G,,G,, | 
[V:1] [M:3/4]C2A, z G,3/C/ | 
[V:2] [M:3/4]z6 | 
[V:1] [M:2/4]C2CB, | 
[V:2] [M:2/4]z4 | 
[V:1] C2A, z | 
[V:2] z4 | 
[V:1] A,2CA, | 
[V:2] z4 | 
[V:1] [M:3/4]A,F,F,2F,3/F,/ | 
[V:2] [M:3/4]z6 | 
[V:1] [M:2/4](F,C,) C, z | 
[V:2] [M:2/4]z4 | 
[V:1] A,2CA, | 
[V:2] z4 | 
[V:1] [M:3/4]A,F,F,2F,3/F,/ | 
[V:2] [M:3/4]z6 | 
[V:1] F,C, C, z C,3/C/ :|]  
[V:2] z6 :|]  
[V:1] F,C, C,z3 |]  
[V:2] z6 |]  



